X:20
%%titlespace -10
%%musicspace -10
T:Glandyfi
K:G
M:6/8
L:1/8
D | "G"G2 G G2 B | "Em"d2 c B2 G | "Am" A2 A AGA | "G" B2 G "D" E2 D | 
"Em" G2 G G2 B | d2 c B2 G | "Am" c2 B "D" AGA |1 "G" G3 G2 :]
|: d| "C" e2 d e2 d | e2 f g2 d | "Am" e2 d cBA | "G" B2 G "C" E2 D | 
"G" G2 G G2 B | "Em" d2 c B2 G | "Am" c2 B "D"AGA |1 "G" G3 G2:]2


